X: 12299
T: Fairy Queen, The
R: hornpipe
M: 4/4
K: Dmajor
|:A/|d2 e>c d2 (3BAG|(3FED F>A d2 F>D|G2 F>G E2 (3def|1 g>ec<e d2- d3/2:|2 g>ec>e d2||
(3cBA|:d>f^e>f g>fg>a|b>a^g>a b2 (3aga|f>dA<F G2 e>f|1 g>ec<e d2:|2 g>Ae<A d2- d3/2||

